Newaita-dark/devices/24/drive-optical.svg

<svg height="24pt" viewBox="0 0 24 24" width="24pt" xmlns="http://www.w3.org/2000/svg" xmlns:xlink="http://www.w3.org/1999/xlink"><linearGradient id="a"><stop offset="0" stop-opacity=".313725"/><stop offset=".222222" stop-opacity=".27451"/><stop offset="1" stop-opacity="0"/></linearGradient><radialGradient id="b" cx="450.90894" cy="189.57936" gradientTransform="matrix(.00000013 -.0585994 -.105479 -.00000008 33.392364 47.696499)" gradientUnits="userSpaceOnUse" r="21.166656" xlink:href="#a"/><radialGradient id="c" cx="450.90894" cy="189.57936" gradientTransform="matrix(-.00000013 .0585994 .105479 .00000008 -9.57759 -5.645611)" gradientUnits="userSpaceOnUse" r="21.166656" xlink:href="#a"/><radialGradient id="d" cx="450.90894" cy="189.57936" gradientTransform="matrix(-.00000013 -.0585994 .105479 -.00000008 -9.57759 47.696499)" gradientUnits="userSpaceOnUse" r="21.166656" xlink:href="#a"/><radialGradient id="e" cx="450.90894" cy="189.57936" gradientTransform="matrix(.00000013 .0585994 -.105479 .00000008 33.392363 -5.645611)" gradientUnits="userSpaceOnUse" r="21.166656" xlink:href="#a"/><linearGradient id="f" gradientTransform="matrix(.01002 0 0 .0468795 9.349039 10.079088)" gradientUnits="userSpaceOnUse" x1="255.32306" x2="255.32304" y1="233.5" y2="254.66666"><stop offset="0" stop-opacity=".27451"/><stop offset="1" stop-opacity="0"/></linearGradient><linearGradient id="g" gradientUnits="userSpaceOnUse" x1="960.000112" x2="960.000112" y1="175.11802806824" y2="1695.118218"><stop offset="0" stop-color="#757575"/><stop offset="1" stop-color="#616161"/></linearGradient><linearGradient id="h" gradientUnits="userSpaceOnUse" x1="960.000112" x2="960.000112" y1="1255.11819186352" y2="615.118092"><stop offset="0" stop-color="#f5f5f5"/><stop offset="1" stop-color="#e0e0e0"/></linearGradient><path d="m13.644531 21.027344h1.984375v-.996094h-1.984375zm0 0" fill="url(#b)"/><path d="m10.171875 21.027344h-1.984375v.992187h1.984375zm0 0" fill="url(#c)"/><path d="m10.171875 21.027344h-1.984375v-.996094h1.984375zm0 0" fill="url(#d)"/><path d="m13.644531 21.027344h1.984375v.992187h-1.984375zm0 0" fill="url(#e)"/><path d="m10.171875 20.777344h3.472656v1.242187h-3.472656zm0 0" fill="url(#f)"/><path d="m959.908345 175.101391c-421.062158 0-759.92744 338.865282-759.92744 759.92744s338.865282 760.242371 759.92744 760.242371c421.062159 0 760.242371-339.180213 760.242371-760.242371s-339.180212-759.92744-760.242371-759.92744zm0 599.942716c88.810418 0 159.984725 71.489237 159.984725 159.984724 0 88.810418-71.174307 159.984724-159.984725 159.984724-88.495487 0-159.984724-71.174306-159.984724-159.984724 0-88.495487 71.489237-159.984724 159.984724-159.984724zm0 0" fill="url(#g)" stroke="#333" stroke-linecap="round" stroke-width="11.338583" transform="scale(.0124035)"/><path d="m11.90625 21.027344c-5.222656 0-9.425781-4.207032-9.425781-9.429688 0-.03125 0-.058594 0-.089844.050781 5.179688 4.234375 9.332032 9.425781 9.332032s9.378906-4.152344 9.425781-9.332032c0 .03125.003907.058594.003907.089844 0 5.222656-4.207032 9.429688-9.429688 9.429688zm0 0" fill-opacity=".196078"/><path d="m5.191406 5.085938c-.554687.570312-1.039062 1.210937-1.4375 1.898437-.398437.691406-.710937 1.429687-.925781 2.195313l2.117187.570312c.328126-1.175781.945313-2.246094 1.796876-3.113281zm1.945313 1.945312c-.785157.796875-1.351563 1.785156-1.648438 2.863281l4.507813 1.207031c.089844-.285156.238281-.546874.441406-.769531zm6.640625 5.230469c-.046875.140625-.105469.277343-.179688.40625-.074218.128906-.164062.25-.265625.359375l3.304688 3.304687c.785156-.800781 1.351562-1.785156 1.648437-2.863281zm5.046875 1.351562c-.324219 1.171875-.941407 2.242188-1.792969 3.113281l1.546875 1.546876c.558594-.570313 1.042969-1.207032 1.4375-1.898438.402344-.6875.710937-1.425781.925781-2.195312zm0 0" fill="#fff" fill-opacity=".156863"/><path d="m11.90625 2.171875c-5.222656 0-9.425781 4.203125-9.425781 9.425781v.09375c.050781-5.179687 4.234375-9.335937 9.425781-9.335937s9.378906 4.15625 9.425781 9.335937c0-.03125.003907-.0625.003907-.09375 0-5.222656-4.207032-9.425781-9.429688-9.425781zm0 0" fill="#fff" fill-opacity=".588235"/><path d="m11.90625 2.101562c-5.257812 0-9.496094 4.238282-9.496094 9.496094 0 5.261719 4.238282 9.5 9.496094 9.5 5.261719 0 9.5-4.238281 9.5-9.5 0-5.257812-4.238281-9.496094-9.5-9.496094zm0 .140626c5.1875 0 9.359375 4.171874 9.359375 9.355468 0 5.1875-4.171875 9.359375-9.359375 9.359375-5.183594 0-9.355469-4.171875-9.355469-9.359375 0-5.183594 4.171875-9.355468 9.355469-9.355468zm0 0" fill="#212121"/><path d="m959.908345 615.059383c-177.305905 0-319.969448 142.663543-319.969448 319.969448s142.663543 319.969449 319.969448 319.969449 319.969449-142.663544 319.969449-319.969449-142.663544-319.969448-319.969449-319.969448zm0 159.984724c88.810418 0 159.984725 71.489237 159.984725 159.984724 0 88.810418-71.174307 159.984724-159.984725 159.984724-88.495487 0-159.984724-71.174306-159.984724-159.984724 0-88.495487 71.489237-159.984724 159.984724-159.984724zm0 0" fill="url(#h)" stroke="#333" stroke-linecap="round" stroke-width="11.338583" transform="scale(.0124035)"/></svg>

<?xml version="1.0" encoding="UTF-8"?>
<svg xmlns="http://www.w3.org/2000/svg" xmlns:xlink="http://www.w3.org/1999/xlink" width="24pt" height="24pt" viewBox="0 0 24 24" version="1.1">
<defs>
<radialGradient id="radial0" gradientUnits="userSpaceOnUse" cx="450.90894" cy="189.57936" fx="450.90894" fy="189.57936" r="21.166656" gradientTransform="matrix(0.000000130628,-0.0585994,-0.105479,-0.0000000761539,33.392364,47.696499)">
<stop offset="0" style="stop-color:rgb(0%,0%,0%);stop-opacity:0.313725;"/>
<stop offset="0.222222" style="stop-color:rgb(0%,0%,0%);stop-opacity:0.27451;"/>
<stop offset="1" style="stop-color:rgb(0%,0%,0%);stop-opacity:0;"/>
</radialGradient>
<radialGradient id="radial1" gradientUnits="userSpaceOnUse" cx="450.90894" cy="189.57936" fx="450.90894" fy="189.57936" r="21.166656" gradientTransform="matrix(-0.000000130628,0.0585994,0.105479,0.0000000761539,-9.57759,-5.645611)">
<stop offset="0" style="stop-color:rgb(0%,0%,0%);stop-opacity:0.313725;"/>
<stop offset="0.222222" style="stop-color:rgb(0%,0%,0%);stop-opacity:0.27451;"/>
<stop offset="1" style="stop-color:rgb(0%,0%,0%);stop-opacity:0;"/>
</radialGradient>
<radialGradient id="radial2" gradientUnits="userSpaceOnUse" cx="450.90894" cy="189.57936" fx="450.90894" fy="189.57936" r="21.166656" gradientTransform="matrix(-0.000000130628,-0.0585994,0.105479,-0.0000000761539,-9.57759,47.696499)">
<stop offset="0" style="stop-color:rgb(0%,0%,0%);stop-opacity:0.313725;"/>
<stop offset="0.222222" style="stop-color:rgb(0%,0%,0%);stop-opacity:0.27451;"/>
<stop offset="1" style="stop-color:rgb(0%,0%,0%);stop-opacity:0;"/>
</radialGradient>
<radialGradient id="radial3" gradientUnits="userSpaceOnUse" cx="450.90894" cy="189.57936" fx="450.90894" fy="189.57936" r="21.166656" gradientTransform="matrix(0.000000130628,0.0585994,-0.105479,0.0000000761539,33.392363,-5.645611)">
<stop offset="0" style="stop-color:rgb(0%,0%,0%);stop-opacity:0.313725;"/>
<stop offset="0.222222" style="stop-color:rgb(0%,0%,0%);stop-opacity:0.27451;"/>
<stop offset="1" style="stop-color:rgb(0%,0%,0%);stop-opacity:0;"/>
</radialGradient>
<linearGradient id="linear0" gradientUnits="userSpaceOnUse" x1="255.32306" y1="233.5" x2="255.32304" y2="254.66666" gradientTransform="matrix(0.01002,0,0,0.0468795,9.349039,10.079088)">
<stop offset="0" style="stop-color:rgb(0%,0%,0%);stop-opacity:0.27451;"/>
<stop offset="1" style="stop-color:rgb(0%,0%,0%);stop-opacity:0;"/>
</linearGradient>
<linearGradient id="linear1" gradientUnits="userSpaceOnUse" x1="254" y1="-168.66667" x2="254" y2="233.5" gradientTransform="matrix(3.779528,0,0,3.779528,0,812.59843)">
<stop offset="0" style="stop-color:rgb(45.882353%,45.882353%,45.882353%);stop-opacity:1;"/>
<stop offset="1" style="stop-color:rgb(38.039216%,38.039216%,38.039216%);stop-opacity:1;"/>
</linearGradient>
<linearGradient id="linear2" gradientUnits="userSpaceOnUse" x1="254" y1="117.08334" x2="254" y2="-52.25" gradientTransform="matrix(3.779528,0,0,3.779528,0,812.59843)">
<stop offset="0" style="stop-color:rgb(96.078431%,96.078431%,96.078431%);stop-opacity:1;"/>
<stop offset="1" style="stop-color:rgb(87.843137%,87.843137%,87.843137%);stop-opacity:1;"/>
</linearGradient>
</defs>
<g id="surface1">
<path style=" stroke:none;fill-rule:nonzero;fill:url(#radial0);" d="M 13.644531 21.027344 L 15.628906 21.027344 L 15.628906 20.03125 L 13.644531 20.03125 Z M 13.644531 21.027344 "/>
<path style=" stroke:none;fill-rule:nonzero;fill:url(#radial1);" d="M 10.171875 21.027344 L 8.1875 21.027344 L 8.1875 22.019531 L 10.171875 22.019531 Z M 10.171875 21.027344 "/>
<path style=" stroke:none;fill-rule:nonzero;fill:url(#radial2);" d="M 10.171875 21.027344 L 8.1875 21.027344 L 8.1875 20.03125 L 10.171875 20.03125 Z M 10.171875 21.027344 "/>
<path style=" stroke:none;fill-rule:nonzero;fill:url(#radial3);" d="M 13.644531 21.027344 L 15.628906 21.027344 L 15.628906 22.019531 L 13.644531 22.019531 Z M 13.644531 21.027344 "/>
<path style=" stroke:none;fill-rule:nonzero;fill:url(#linear0);" d="M 10.171875 20.777344 L 13.644531 20.777344 L 13.644531 22.019531 L 10.171875 22.019531 Z M 10.171875 20.777344 "/>
<path style="fill-rule:nonzero;fill:url(#linear1);stroke-width:11.338583;stroke-linecap:round;stroke-linejoin:miter;stroke:rgb(20%,20%,20%);stroke-opacity:1;stroke-miterlimit:4;" d="M 959.908345 175.101391 C 538.846187 175.101391 199.980905 513.966673 199.980905 935.028831 C 199.980905 1356.090989 538.846187 1695.271202 959.908345 1695.271202 C 1380.970504 1695.271202 1720.150716 1356.090989 1720.150716 935.028831 C 1720.150716 513.966673 1380.970504 175.101391 959.908345 175.101391 Z M 959.908345 775.044107 C 1048.718763 775.044107 1119.89307 846.533344 1119.89307 935.028831 C 1119.89307 1023.839249 1048.718763 1095.013555 959.908345 1095.013555 C 871.412858 1095.013555 799.923621 1023.839249 799.923621 935.028831 C 799.923621 846.533344 871.412858 775.044107 959.908345 775.044107 Z M 959.908345 775.044107 " transform="matrix(0.0124035,0,0,0.0124035,0,0)"/>
<path style=" stroke:none;fill-rule:nonzero;fill:rgb(0%,0%,0%);fill-opacity:0.196078;" d="M 11.90625 21.027344 C 6.683594 21.027344 2.480469 16.820312 2.480469 11.597656 C 2.480469 11.566406 2.480469 11.539062 2.480469 11.507812 C 2.53125 16.6875 6.714844 20.839844 11.90625 20.839844 C 17.097656 20.839844 21.285156 16.6875 21.332031 11.507812 C 21.332031 11.539062 21.335938 11.566406 21.335938 11.597656 C 21.335938 16.820312 17.128906 21.027344 11.90625 21.027344 Z M 11.90625 21.027344 "/>
<path style=" stroke:none;fill-rule:nonzero;fill:rgb(100%,100%,100%);fill-opacity:0.156863;" d="M 5.191406 5.085938 C 4.636719 5.65625 4.152344 6.296875 3.753906 6.984375 C 3.355469 7.675781 3.042969 8.414062 2.828125 9.179688 L 4.945312 9.75 C 5.273438 8.574219 5.890625 7.503906 6.742188 6.636719 Z M 7.136719 7.03125 C 6.351562 7.828125 5.785156 8.816406 5.488281 9.894531 L 9.996094 11.101562 C 10.085938 10.816406 10.234375 10.554688 10.4375 10.332031 Z M 13.777344 12.261719 C 13.730469 12.402344 13.671875 12.539062 13.597656 12.667969 C 13.523438 12.796875 13.433594 12.917969 13.332031 13.027344 L 16.636719 16.332031 C 17.421875 15.53125 17.988281 14.546875 18.285156 13.46875 Z M 18.824219 13.613281 C 18.5 14.785156 17.882812 15.855469 17.03125 16.726562 L 18.578125 18.273438 C 19.136719 17.703125 19.621094 17.066406 20.015625 16.375 C 20.417969 15.6875 20.726562 14.949219 20.941406 14.179688 Z M 18.824219 13.613281 "/>
<path style=" stroke:none;fill-rule:nonzero;fill:rgb(100%,100%,100%);fill-opacity:0.588235;" d="M 11.90625 2.171875 C 6.683594 2.171875 2.480469 6.375 2.480469 11.597656 C 2.480469 11.628906 2.480469 11.660156 2.480469 11.691406 C 2.53125 6.511719 6.714844 2.355469 11.90625 2.355469 C 17.097656 2.355469 21.285156 6.511719 21.332031 11.691406 C 21.332031 11.660156 21.335938 11.628906 21.335938 11.597656 C 21.335938 6.375 17.128906 2.171875 11.90625 2.171875 Z M 11.90625 2.171875 "/>
<path style=" stroke:none;fill-rule:nonzero;fill:rgb(12.941176%,12.941176%,12.941176%);fill-opacity:1;" d="M 11.90625 2.101562 C 6.648438 2.101562 2.410156 6.339844 2.410156 11.597656 C 2.410156 16.859375 6.648438 21.097656 11.90625 21.097656 C 17.167969 21.097656 21.40625 16.859375 21.40625 11.597656 C 21.40625 6.339844 17.167969 2.101562 11.90625 2.101562 Z M 11.90625 2.242188 C 17.09375 2.242188 21.265625 6.414062 21.265625 11.597656 C 21.265625 16.785156 17.09375 20.957031 11.90625 20.957031 C 6.722656 20.957031 2.550781 16.785156 2.550781 11.597656 C 2.550781 6.414062 6.722656 2.242188 11.90625 2.242188 Z M 11.90625 2.242188 "/>
<path style="fill-rule:nonzero;fill:url(#linear2);stroke-width:11.338583;stroke-linecap:round;stroke-linejoin:miter;stroke:rgb(20%,20%,20%);stroke-opacity:1;stroke-miterlimit:4;" d="M 959.908345 615.059383 C 782.60244 615.059383 639.938897 757.722926 639.938897 935.028831 C 639.938897 1112.334736 782.60244 1254.99828 959.908345 1254.99828 C 1137.21425 1254.99828 1279.877794 1112.334736 1279.877794 935.028831 C 1279.877794 757.722926 1137.21425 615.059383 959.908345 615.059383 Z M 959.908345 775.044107 C 1048.718763 775.044107 1119.89307 846.533344 1119.89307 935.028831 C 1119.89307 1023.839249 1048.718763 1095.013555 959.908345 1095.013555 C 871.412858 1095.013555 799.923621 1023.839249 799.923621 935.028831 C 799.923621 846.533344 871.412858 775.044107 959.908345 775.044107 Z M 959.908345 775.044107 " transform="matrix(0.0124035,0,0,0.0124035,0,0)"/>
</g>
</svg>
